printer-pos-plus-outline.svg

<svg fill="currentColor" viewBox="0 0 24 24"><path d="M6 12h12v1.09c.33-.05.66-.09 1-.09s.67.04 1 .09V12a2 2 0 0 0-2-2h-1V4H7v6H6a2 2 0 0 0-2 2v7h9c0-.7.13-1.37.35-2H6zm3-6h6v4H9zm-2 9v-2h4v2zm16 3v2h-3v3h-2v-3h-3v-2h3v-3h2v3z"/></svg>

<svg  viewBox="0 0 24 24" fill="currentColor"><path  d="M6 12H18V13.09C18.33 13.04 18.66 13 19 13C19.34 13 19.67 13.04 20 13.09V12C20 10.9 19.11 10 18 10H17V4H7V10H6C4.89 10 4 10.9 4 12V19H13C13 18.3 13.13 17.63 13.35 17H6V12M9 6H15V10H9V6M7 15V13H11V15H7M23 18V20H20V23H18V20H15V18H18V15H20V18H23Z"/></svg>
